X:119 
T:Mamma's Polka 
S:Barrett < Collins
F:file ID: cre.4/119mam_p
B:CRE4.088 (Polca mo MhÃÂÃÂÃÂÃÂ¡ithrÃÂÃÂÃÂÃÂ­n)
S:BPC 
L:1/8
M:2/4
Q:150
R:polka
K:D % source key A
FA A/G/A|BA A/G/A|AD FE|FD D/C/D|
FA A/G/A|BA A/G/A|AD FE|FD D2:|
Ad Ad|cB B/A/B|cA A/G/A|BA A/G/A|
Ad Ad|cB B/A/B|cA Bc|d2 d2:|

%%%
